svg/fluentui-system-icons/ic_fluent_multiselect_ltr_20_filled.svg

<svg width="20" height="20" viewBox="0 0 20 20" fill="none" xmlns="http://www.w3.org/2000/svg">
<path d="M6.25172 3.19254C6.55961 3.46963 6.58456 3.94385 6.30747 4.25173L4.05747 6.75173C3.91983 6.90467 3.7254 6.99434 3.51972 6.99975C3.31403 7.00516 3.11516 6.92583 2.96967 6.78034L1.71967 5.53034C1.42678 5.23744 1.42678 4.76257 1.71967 4.46968C2.01256 4.17678 2.48744 4.17678 2.78033 4.46968L3.47135 5.1607L5.19253 3.24828C5.46962 2.9404 5.94384 2.91544 6.25172 3.19254ZM8 5.25001C8 4.83579 8.33579 4.50001 8.75 4.50001H17.25C17.6642 4.50001 18 4.83579 18 5.25001C18 5.66422 17.6642 6.00001 17.25 6.00001H8.75C8.33579 6.00001 8 5.66422 8 5.25001ZM8 10.25C8 9.83579 8.33579 9.50001 8.75 9.50001H17.25C17.6642 9.50001 18 9.83579 18 10.25C18 10.6642 17.6642 11 17.25 11H8.75C8.33579 11 8 10.6642 8 10.25ZM8.75 14.5C8.33579 14.5 8 14.8358 8 15.25C8 15.6642 8.33579 16 8.75 16H17.25C17.6642 16 18 15.6642 18 15.25C18 14.8358 17.6642 14.5 17.25 14.5H8.75ZM6.30747 14.2517C6.58456 13.9438 6.55961 13.4696 6.25172 13.1925C5.94384 12.9154 5.46962 12.9404 5.19253 13.2483L3.47135 15.1607L2.78033 14.4697C2.48744 14.1768 2.01256 14.1768 1.71967 14.4697C1.42678 14.7626 1.42678 15.2374 1.71967 15.5303L2.96967 16.7803C3.11516 16.9258 3.31403 17.0051 3.51972 16.9997C3.7254 16.9943 3.91983 16.9047 4.05747 16.7517L6.30747 14.2517Z" fill="#212121"/>
</svg>

<svg xmlns="http://www.w3.org/2000/svg" width="20" height="20"><path d="M6.252 3.193a.75.75 0 0 1 .055 1.059l-2.25 2.5a.75.75 0 0 1-1.087.028L1.72 5.53a.75.75 0 0 1 1.06-1.06l.691.69 1.722-1.912a.75.75 0 0 1 1.059-.055ZM8 5.25a.75.75 0 0 1 .75-.75h8.5a.75.75 0 0 1 0 1.5h-8.5A.75.75 0 0 1 8 5.25Zm0 5a.75.75 0 0 1 .75-.75h8.5a.75.75 0 0 1 0 1.5h-8.5a.75.75 0 0 1-.75-.75Zm.75 4.25a.75.75 0 0 0 0 1.5h8.5a.75.75 0 0 0 0-1.5h-8.5Zm-2.443-.248a.75.75 0 1 0-1.114-1.004L3.47 15.161l-.69-.691a.75.75 0 0 0-1.061 1.06l1.25 1.25a.75.75 0 0 0 1.087-.028l2.25-2.5Z"/></svg>
